resources/bar.svg

<svg enable-background="new 0 0 32 32" viewBox="0 0 32 32" xmlns="http://www.w3.org/2000/svg" xmlns:xlink="http://www.w3.org/1999/xlink"><linearGradient id="a" gradientUnits="userSpaceOnUse" x1="6.4483" x2="22.8312" y1="1.5894" y2="29.9654"><stop offset="0" stop-color="#1cbbe5"/><stop offset="1" stop-color="#6ce3ff"/></linearGradient><path d="m21 25.9v2.1h2c1.1 0 2-.9 2-2v-17h-5c-1.1 0-2-.9-2-2v-6h-10c-1.1 0-2 .9-2 2v23c0 1.1.9 2 2 2h8v-2.1c-.6-.6-1-1.5-1-2.4 0-1.9 1.6-3.5 3.5-3.5s3.5 1.6 3.5 3.5c0 1-.4 1.8-1 2.4zm-4 .8v4.9l1.5-1.5 1.5 1.5v-4.9c-.5.2-1 .3-1.5.3s-1-.1-1.5-.3zm2-25.7v6c0 .6.5 1 1 1h5zm-10 7v1h7v-1zm0-3v1h7v-1zm0 6v1h13v-1zm0 3v1h13v-1zm0 3v1h13v-1zm9.5 9c1.4 0 2.5-1.1 2.5-2.5s-1.1-2.5-2.5-2.5-2.5 1.1-2.5 2.5 1.1 2.5 2.5 2.5z" fill="url(#a)"/></svg>

<?xml version="1.0" encoding="utf-8"?>
<!-- Generator: Adobe Illustrator 22.0.1, SVG Export Plug-In . SVG Version: 6.00 Build 0)  -->
<svg version="1.1" id="Layer_1" xmlns:sketch="http://www.bohemiancoding.com/sketch/ns"
	 xmlns="http://www.w3.org/2000/svg" xmlns:xlink="http://www.w3.org/1999/xlink" x="0px" y="0px" viewBox="0 0 32 32"
	 style="enable-background:new 0 0 32 32;" xml:space="preserve">
<style type="text/css">
	.st0{fill:url(#document-certificate_1_);}
</style>
<title></title>
<desc></desc>
<g id="Page-1">
	<g id="icon-137-document-certificate">
		<linearGradient id="document-certificate_1_" gradientUnits="userSpaceOnUse" x1="6.4483" y1="1.5894" x2="22.8312" y2="29.9654">
			<stop  offset="0" style="stop-color:#1CBBE5"/>
			<stop  offset="1" style="stop-color:#6CE3FF"/>
		</linearGradient>
		<path id="document-certificate" class="st0" d="M21,25.9V28h2c1.1,0,2-0.9,2-2V9h-5c-1.1,0-2-0.9-2-2V1H8C6.9,1,6,1.9,6,3v23
			c0,1.1,0.9,2,2,2h8v-2.1c-0.6-0.6-1-1.5-1-2.4c0-1.9,1.6-3.5,3.5-3.5s3.5,1.6,3.5,3.5C22,24.5,21.6,25.3,21,25.9L21,25.9L21,25.9z
			 M17,26.7v4.9l1.5-1.5l1.5,1.5v-4.9c-0.5,0.2-1,0.3-1.5,0.3S17.5,26.9,17,26.7L17,26.7L17,26.7z M19,1v6c0,0.6,0.5,1,1,1h5L19,1
			L19,1z M9,8v1h7V8H9L9,8z M9,5v1h7V5H9L9,5z M9,11v1h13v-1H9L9,11z M9,14v1h13v-1H9L9,14z M9,17v1h13v-1H9L9,17z M18.5,26
			c1.4,0,2.5-1.1,2.5-2.5S19.9,21,18.5,21S16,22.1,16,23.5S17.1,26,18.5,26L18.5,26z"/>
	</g>
</g>
</svg>
